X: 12832
T: Felton Lonnen
R: jig
M: 6/8
K: Gmajor
|:cd|e2c dBG|B/A/BG GBd|e2c dBG|c/B/cA Acd|
e2c dBG|B/A/BG GAB|cec BdB|cAA A:|
|:cd|efg {a}gfe|dgG GBc|de/f/g fed|eaA Acd|
efg {a}gfe|def gdB|cac BgB|cAA A:|

